material/.icons/material/checkbox-marked-outline.svg

<svg xmlns="http://www.w3.org/2000/svg" viewBox="0 0 24 24"><path d="M19 19H5V5h10V3H5c-1.11 0-2 .89-2 2v14a2 2 0 002 2h14a2 2 0 002-2v-8h-2m-11.09-.92L6.5 11.5 11 16 21 6l-1.41-1.42L11 13.17l-3.09-3.09z"/></svg>

<?xml version="1.0" encoding="UTF-8"?><!DOCTYPE svg PUBLIC "-//W3C//DTD SVG 1.1//EN" "http://www.w3.org/Graphics/SVG/1.1/DTD/svg11.dtd"><svg xmlns="http://www.w3.org/2000/svg" xmlns:xlink="http://www.w3.org/1999/xlink" version="1.1" id="mdi-checkbox-marked-outline" width="24" height="24" viewBox="0 0 24 24"><path d="M19,19H5V5H15V3H5C3.89,3 3,3.89 3,5V19A2,2 0 0,0 5,21H19A2,2 0 0,0 21,19V11H19M7.91,10.08L6.5,11.5L11,16L21,6L19.59,4.58L11,13.17L7.91,10.08Z" /></svg>
